img/logos/TS-Classification_logo.svg

<?xml version="1.0" encoding="UTF-8"?>
<svg width="215.26" height="248.56" version="1.1" viewBox="0 0 215.26 248.56" xml:space="preserve" xmlns="http://www.w3.org/2000/svg" xmlns:cc="http://creativecommons.org/ns#" xmlns:dc="http://purl.org/dc/elements/1.1/" xmlns:rdf="http://www.w3.org/1999/02/22-rdf-syntax-ns#"><metadata><rdf:RDF><cc:Work rdf:about=""><dc:format>image/svg+xml</dc:format><dc:type rdf:resource="http://purl.org/dc/dcmitype/StillImage"/><dc:title/></cc:Work></rdf:RDF></metadata><g transform="matrix(1.3333 0 0 1.3333 -21.834 .19982)"><path d="m177.83 139.82-80.727 46.606-80.722-46.606v-93.211l80.722-46.605 80.727 46.605z" fill="#a00"/><path d="m134.41 48.727-24.562 41.195-17.5-20.129-9.645 6.805-15.695-20.293-8.528 19.703-7.074-8.934-48.406 48.981 0.531 0.527 47.813-48.375 7.328 9.246 8.519-19.691 15.364 19.863 9.671-6.832 17.735 20.402 24.68-41.39 27.339 19.429 28.246-18.703-0.414-0.625-27.816 18.418z" fill="#fff" stroke="#fff" stroke-width="4.252"/><path d="m165.2 96.023-22.8 30.207-9.051-5.839-11.551 11.164-29.313-19.856-11.234 7.801-23.164-7.973-35.207 40.532 0.566 0.492 34.871-40.149 23.051 7.934 11.121-7.731 29.399 19.915 11.555-11.176 9.136 5.894 22.66-30.019 17.975 19.436z" fill="#fff" stroke="#fff" stroke-width="4.252"/></g></svg>

<?xml version="1.0" encoding="UTF-8" standalone="no"?>
<svg
   xmlns:dc="http://purl.org/dc/elements/1.1/"
   xmlns:cc="http://creativecommons.org/ns#"
   xmlns:rdf="http://www.w3.org/1999/02/22-rdf-syntax-ns#"
   xmlns:svg="http://www.w3.org/2000/svg"
   xmlns="http://www.w3.org/2000/svg"
   viewBox="0 0 257.56802 248.56265"
   height="248.56265"
   width="257.56802"
   xml:space="preserve"
   id="svg833"
   version="1.1"><metadata
     id="metadata839"><rdf:RDF><cc:Work
         rdf:about=""><dc:format>image/svg+xml</dc:format><dc:type
           rdf:resource="http://purl.org/dc/dcmitype/StillImage" /><dc:title></dc:title></cc:Work></rdf:RDF></metadata><defs
     id="defs837" /><g
     transform="matrix(1.3333333,0,0,1.3333333,0,3.5473998e-6)"
     id="g841"><g
       id="g843"><path
         id="path845"
         style="fill:#aa0000;fill-opacity:1;fill-rule:nonzero;stroke:none"
         d="M 177.832,139.816 97.105,186.422 16.383,139.816 V 46.605 L 97.105,0 177.832,46.605 Z" /><g
         id="g847"><path
           id="path849"
           style="fill:#ffffff;fill-opacity:1;fill-rule:nonzero;stroke:#ffffff;stroke-width:4.25197;stroke-linecap:butt;stroke-linejoin:miter;stroke-miterlimit:4;stroke-dasharray:none;stroke-opacity:1"
           d="M 134.414,48.727 109.852,89.922 92.352,69.793 82.707,76.598 67.012,56.305 58.484,76.008 51.41,67.074 3.004,116.055 l 0.531,0.527 47.813,-48.375 7.328,9.246 8.519,-19.691 15.364,19.863 9.671,-6.832 17.735,20.402 24.68,-41.39 27.339,19.429 L 190.23,50.531 189.816,49.906 162,68.324 Z" /></g><g
         id="g851"><path
           id="path853"
           style="fill:#ffffff;fill-opacity:1;fill-rule:nonzero;stroke:#ffffff;stroke-width:4.25197;stroke-linecap:butt;stroke-linejoin:miter;stroke-miterlimit:4;stroke-dasharray:none;stroke-opacity:1"
           d="m 165.195,96.023 -22.8,30.207 -9.051,-5.839 -11.551,11.164 -29.313,-19.856 -11.234,7.801 -23.164,-7.973 -35.207,40.532 0.566,0.492 34.871,-40.149 23.051,7.934 11.121,-7.731 29.399,19.915 11.555,-11.176 9.136,5.894 22.66,-30.019 20.34,23.703 0.571,-0.492 z" /></g></g></g></svg>
